webapp/src/assets/icons/cloudproviders/aws/application_integration/sns_topic.svg

<?xml version="1.0" encoding="UTF-8"?>
<svg width="48px" height="48px" viewBox="0 0 48 48" version="1.1" xmlns="http://www.w3.org/2000/svg" xmlns:xlink="http://www.w3.org/1999/xlink">
    <title>Icon-Resource/Application-Integration/Res_Amazon-Simple-Notification-Service_Topic_48</title>
    <g id="Icon-Resource/Application-Integration/Res_Amazon-Simple-Notification-Service_Topic_48" stroke="none" stroke-width="1" fill="none" fill-rule="evenodd">
        <path d="M44,38.5 L46,38.5 L46,36.5 L44,36.5 L44,38.5 Z M46,33 L46,34.5 L44,34.5 L44,34 L43.5,34 L43.5,32 L45,32 C45.553,32 46,32.447 46,33 L46,33 Z M13.5,34 L16.5,34 L16.5,32 L13.5,32 L13.5,34 Z M37.5,34 L40.5,34 L40.5,32 L37.5,32 L37.5,34 Z M19.5,34 L22.5,34 L22.5,32 L19.5,32 L19.5,34 Z M7.5,34 L10.5,34 L10.5,32 L7.5,32 L7.5,34 Z M31.5,34 L34.5,34 L34.5,32 L31.5,32 L31.5,34 Z M25.5,34 L28.5,34 L28.5,32 L25.5,32 L25.5,34 Z M3,32 L4.5,32 L4.5,34 L4,34 L4,34.5 L2,34.5 L2,33 C2,32.447 2.447,32 3,32 L3,32 Z M2,38.5 L4,38.5 L4,36.5 L2,36.5 L2,38.5 Z M4,41 L4.5,41 L4.5,43 L3,43 C2.447,43 2,42.553 2,42 L2,40.5 L4,40.5 L4,41 Z M19.5,43 L22.5,43 L22.5,41 L19.5,41 L19.5,43 Z M31.5,43 L34.5,43 L34.5,41 L31.5,41 L31.5,43 Z M37.5,43 L40.5,43 L40.5,41 L37.5,41 L37.5,43 Z M7.5,43 L10.5,43 L10.5,41 L7.5,41 L7.5,43 Z M25.5,43 L28.5,43 L28.5,41 L25.5,41 L25.5,43 Z M13.5,43 L16.5,43 L16.5,41 L13.5,41 L13.5,43 Z M44,40.5 L46,40.5 L46,42 C46,42.553 45.553,43 45,43 L43.5,43 L43.5,41 L44,41 L44,40.5 Z M44,25.5 L46,25.5 L46,23.5 L44,23.5 L44,25.5 Z M46,20 L46,21.5 L44,21.5 L44,21 L43.5,21 L43.5,19 L45,19 C45.553,19 46,19.447 46,20 L46,20 Z M31.5,21 L34.5,21 L34.5,19 L31.5,19 L31.5,21 Z M7.5,21 L10.5,21 L10.5,19 L7.5,19 L7.5,21 Z M37.5,21 L40.5,21 L40.5,19 L37.5,19 L37.5,21 Z M13.5,21 L16.5,21 L16.5,19 L13.5,19 L13.5,21 Z M19.5,21 L22.5,21 L22.5,19 L19.5,19 L19.5,21 Z M25.5,21 L28.5,21 L28.5,19 L25.5,19 L25.5,21 Z M3,19 L4.5,19 L4.5,21 L4,21 L4,21.5 L2,21.5 L2,20 C2,19.447 2.447,19 3,19 L3,19 Z M2,25.5 L4,25.5 L4,23.5 L2,23.5 L2,25.5 Z M4,28 L4.5,28 L4.5,30 L3,30 C2.447,30 2,29.553 2,29 L2,27.5 L4,27.5 L4,28 Z M19.5,30 L22.5,30 L22.5,28 L19.5,28 L19.5,30 Z M31.5,30 L34.5,30 L34.5,28 L31.5,28 L31.5,30 Z M7.5,30 L10.5,30 L10.5,28 L7.5,28 L7.5,30 Z M13.5,30 L16.5,30 L16.5,28 L13.5,28 L13.5,30 Z M37.5,30 L40.5,30 L40.5,28 L37.5,28 L37.5,30 Z M25.5,30 L28.5,30 L28.5,28 L25.5,28 L25.5,30 Z M44,27.5 L46,27.5 L46,29 C46,29.553 45.553,30 45,30 L43.5,30 L43.5,28 L44,28 L44,27.5 Z M4,15 L44,15 L44,7 L4,7 L4,15 Z M45,5 L3,5 C2.447,5 2,5.447 2,6 L2,16 C2,16.553 2.447,17 3,17 L45,17 C45.553,17 46,16.553 46,16 L46,6 C46,5.447 45.553,5 45,5 L45,5 Z" id="Amazon-Simple-Notification-Service_Topic_Resource-Icon_light-bg" fill="#E7157B"></path>
    </g>
</svg>

<svg width="48" height="48" xmlns="http://www.w3.org/2000/svg"><path d="M44 38.5h2v-2h-2v2Zm2-5.5v1.5h-2V34h-.5v-2H45a1 1 0 0 1 1 1Zm-32.5 1h3v-2h-3v2Zm24 0h3v-2h-3v2Zm-18 0h3v-2h-3v2Zm-12 0h3v-2h-3v2Zm24 0h3v-2h-3v2Zm-6 0h3v-2h-3v2ZM3 32h1.5v2H4v.5H2V33a1 1 0 0 1 1-1Zm-1 6.5h2v-2H2v2ZM4 41h.5v2H3a1 1 0 0 1-1-1v-1.5h2v.5Zm15.5 2h3v-2h-3v2Zm12 0h3v-2h-3v2Zm6 0h3v-2h-3v2Zm-30 0h3v-2h-3v2Zm18 0h3v-2h-3v2Zm-12 0h3v-2h-3v2ZM44 40.5h2V42a1 1 0 0 1-1 1h-1.5v-2h.5v-.5Zm0-15h2v-2h-2v2Zm2-5.5v1.5h-2V21h-.5v-2H45a1 1 0 0 1 1 1Zm-14.5 1h3v-2h-3v2Zm-24 0h3v-2h-3v2Zm30 0h3v-2h-3v2Zm-24 0h3v-2h-3v2Zm6 0h3v-2h-3v2Zm6 0h3v-2h-3v2ZM3 19h1.5v2H4v.5H2V20a1 1 0 0 1 1-1Zm-1 6.5h2v-2H2v2ZM4 28h.5v2H3a1 1 0 0 1-1-1v-1.5h2v.5Zm15.5 2h3v-2h-3v2Zm12 0h3v-2h-3v2Zm-24 0h3v-2h-3v2Zm6 0h3v-2h-3v2Zm24 0h3v-2h-3v2Zm-12 0h3v-2h-3v2ZM44 27.5h2V29a1 1 0 0 1-1 1h-1.5v-2h.5v-.5ZM4 15h40V7H4v8ZM45 5H3a1 1 0 0 0-1 1v10a1 1 0 0 0 1 1h42a1 1 0 0 0 1-1V6a1 1 0 0 0-1-1Z" fill="#E7157B" fill-rule="evenodd"/></svg>
